domfk/img/advantages/clipboard.svg

<svg width="51" height="51" viewBox="0 0 51 51" fill="none" xmlns="http://www.w3.org/2000/svg">
<g clip-path="url(#clip0_1196_2856)">
<path d="M38.6895 7.03516H36.9309V8.79378C36.9309 10.7283 35.3481 12.311 33.4137 12.311H17.5861C15.6515 12.311 14.0688 10.7283 14.0688 8.79378V7.03516H12.3102C10.3757 7.03516 8.79297 8.61787 8.79297 10.5524V47.4834C8.79297 49.4179 10.3757 51.0007 12.3102 51.0007H38.6895C40.624 51.0007 42.2068 49.4179 42.2068 47.4834V10.5524C42.2068 8.61787 40.624 7.03516 38.6895 7.03516ZM23.3895 38.1628L15.6515 30.4249L16.8826 29.1938L23.3895 35.7007L35.8757 23.2145L37.1067 24.4455L23.3895 38.1628Z" fill="black"/>
<path d="M17.5863 10.5517H33.4138C34.2931 10.5517 35.1725 9.84828 35.1725 8.7931V7.03448C35.1725 5.97931 34.469 5.27586 33.4138 5.27586H29.8966V3.51724C29.8966 1.58271 28.3138 0 26.3794 0H24.6207C22.6862 0 21.1035 1.58271 21.1035 3.51724V5.27586H17.5863C16.707 5.27586 15.8276 5.97931 15.8276 7.03448V8.7931C15.8276 9.84828 16.5311 10.5517 17.5863 10.5517ZM25.5 3.51724C26.0275 3.51724 26.3793 3.86897 26.3793 4.39651C26.3793 4.92405 26.0275 5.27577 25.5 5.27577C24.9725 5.27577 24.6207 4.92405 24.6207 4.39651C24.6207 3.86897 24.9725 3.51724 25.5 3.51724Z" fill="black"/>
</g>
<defs>
<clipPath id="clip0_1196_2856">
<rect width="51" height="51" fill="white"/>
</clipPath>
</defs>
</svg>

<svg width="51" height="51" fill="none" xmlns="http://www.w3.org/2000/svg"><g clip-path="url(#clip0_1196_2856)" fill="#000"><path d="M38.69 7.035h-1.76v1.759a3.528 3.528 0 01-3.516 3.517H17.586a3.528 3.528 0 01-3.517-3.517V7.035H12.31a3.528 3.528 0 00-3.517 3.517v36.931a3.528 3.528 0 003.517 3.518h26.38a3.528 3.528 0 003.517-3.518v-36.93a3.528 3.528 0 00-3.517-3.518zm-15.3 31.128l-7.739-7.738 1.232-1.231L23.39 35.7l12.486-12.486 1.23 1.23L23.39 38.163z"/><path d="M17.586 10.552h15.828c.88 0 1.758-.704 1.758-1.759V7.034c0-1.055-.703-1.758-1.758-1.758h-3.517V3.517A3.528 3.528 0 0026.379 0h-1.758a3.528 3.528 0 00-3.517 3.517v1.759h-3.518c-.879 0-1.758.703-1.758 1.758v1.76c0 1.054.703 1.758 1.758 1.758zM25.5 3.517c.527 0 .88.352.88.88 0 .527-.352.879-.88.879-.527 0-.88-.352-.88-.88 0-.527.352-.879.88-.879z"/></g><defs><clipPath id="clip0_1196_2856"><path fill="#fff" d="M0 0h51v51H0z"/></clipPath></defs></svg>
